X: 10712
T: CALEDONIAN QUADRILLES #5
C: Arranged by W.B. Laybourn
R: march
B: K\"ohler's Violin Repository, v.1, 1885 p.71 #2
F: http://www.archive.org/details/klersviolinrepos01edin
Z: 2012 John Chambers <jc:trillian.mit.edu>
N: This is a version of "The White Cockade".
M: C|
L: 1/8
K: G
u(GA) |\
B2B2 B2(GA) | B2B2 B2g2 | d2(Bd) cBAG | B2A2 A2(GA) |\
B2(Bd) cBAG | B2d2 g2(ga) | bagf efge | d2B2 B2 :|
|: u(Bc) |\
d2B2 g2(Bc) | d2d2 d2(Bc) | d2B2 g2(fg) | a2A2 A2(GA) |\
B2(Bd) cBAG | B2d2 g2(ga) | bagf efge | d2B2 "_Fine."B2 "^D.C.":|

%%sep 2 1 500

